mobile/24/svg/social-tracker-24.svg

<svg width="24" height="24" fill="none" xmlns="http://www.w3.org/2000/svg"><path d="M5.25 16h-2a1 1 0 0 1-1-1V6a1 1 0 0 1 1-1h2a1 1 0 0 1 1 1v9a1 1 0 0 1-1 1zM18.936 17a2.5 2.5 0 0 0 2.372-3.291l-2.083-6.25a2.5 2.5 0 0 0-2.372-1.709H8v9.164l2.009 3.064c.118.18.213.375.281.58l.951 2.852c.117.352.447.59.818.59h.003a1.874 1.874 0 0 0 1.875-1.875V17h4.999z" fill="#000"/></svg>

<svg width="24" height="24" viewBox="0 0 24 24" fill="none" xmlns="http://www.w3.org/2000/svg">
<path d="M5.25 16H3.25C2.698 16 2.25 15.552 2.25 15V6C2.25 5.448 2.698 5 3.25 5H5.25C5.802 5 6.25 5.448 6.25 6V15C6.25 15.552 5.802 16 5.25 16Z" fill="black"/>
<path d="M18.936 17C20.642 17 21.847 15.328 21.308 13.709L19.225 7.459C18.885 6.438 17.929 5.75 16.853 5.75H8V14.914L10.009 17.978C10.127 18.158 10.222 18.353 10.29 18.558L11.241 21.41C11.358 21.762 11.688 22 12.059 22H12.062C13.098 22 13.937 21.161 13.937 20.125V17H18.936Z" fill="black"/>
</svg>
